build/images/icons/damn_2.svg

<svg width="74" height="62" viewBox="0 0 74 62" fill="none" xmlns="http://www.w3.org/2000/svg">
<mask id="mask0" mask-type="alpha" maskUnits="userSpaceOnUse" x="0" y="0" width="74" height="49">
<path fill-rule="evenodd" clip-rule="evenodd" d="M0 0H73.9999V48.3955H0V0Z" fill="white"/>
</mask>
<g mask="url(#mask0)">
<path fill-rule="evenodd" clip-rule="evenodd" d="M61.086 48.3955H58C57.447 48.3955 57 47.9475 57 47.3955C57 46.8435 57.447 46.3955 58 46.3955H60.992C61.017 46.3935 61.04 46.3915 61.065 46.3915C67.095 46.2655 72 41.3405 72 35.4135C72 29.4325 67.235 24.6125 61.152 24.4405C60.809 24.4305 60.493 24.2445 60.318 23.9475C60.145 23.6505 60.135 23.2855 60.294 22.9795C61.36 20.9275 61.901 18.7215 61.901 16.4225C61.901 8.46951 55.321 1.99951 47.232 1.99951C41.79 1.99951 36.822 4.94051 34.268 9.67451C34.125 9.93851 33.872 10.1245 33.578 10.1815C33.281 10.2405 32.981 10.1605 32.749 9.96951C30.321 7.95551 27.232 6.84651 24.05 6.84651C16.611 6.84651 10.555 12.7935 10.548 20.1045C10.548 20.4995 10.315 20.8565 9.954 21.0175C5.122 23.1645 2 27.9155 2 33.1215C2 40.4405 8.058 46.3955 15.504 46.3955H16C16.553 46.3955 17 46.8435 17 47.3955C17 47.9475 16.553 48.3955 16 48.3955H15.504C6.955 48.3955 0 41.5435 0 33.1215C0 27.3365 3.34 22.0425 8.562 19.4615C8.911 11.3455 15.728 4.84651 24.05 4.84651C27.303 4.84651 30.474 5.85851 33.098 7.71751C36.135 2.92951 41.449 -0.000488281 47.232 -0.000488281C56.424 -0.000488281 63.901 7.36751 63.901 16.4225C63.901 18.5525 63.495 20.6115 62.69 22.5625C69.141 23.4485 74 28.8365 74 35.4135C74 42.3885 68.269 48.1885 61.204 48.3885C61.166 48.3935 61.126 48.3955 61.086 48.3955Z" fill="#383F4E"/>
</g>
<mask id="mask1" mask-type="alpha" maskUnits="userSpaceOnUse" x="19" y="49" width="36" height="13">
<path fill-rule="evenodd" clip-rule="evenodd" d="M19.7168 49.3175H54.0008V61.395H19.7168V49.3175Z" fill="white"/>
</mask>
<g mask="url(#mask1)">
<path fill-rule="evenodd" clip-rule="evenodd" d="M36.8578 61.3953C36.1928 61.3953 35.5268 61.2623 34.9968 60.9963L20.8538 53.9103C20.1318 53.5483 19.7168 52.9643 19.7168 52.3083C19.7168 51.6523 20.1318 51.0683 20.8538 50.7053L23.4098 49.4243C23.9038 49.1753 24.5058 49.3773 24.7518 49.8703C24.9998 50.3643 24.7998 50.9653 24.3068 51.2123L22.1208 52.3073L35.8928 59.2083C36.3888 59.4573 37.3278 59.4563 37.8258 59.2083L51.5968 52.3073L49.4118 51.2133C48.9188 50.9653 48.7188 50.3643 48.9668 49.8703C49.2138 49.3773 49.8148 49.1753 50.3088 49.4243L52.8628 50.7053C53.5858 51.0683 54.0008 51.6523 54.0008 52.3083C54.0008 52.9643 53.5858 53.5483 52.8618 53.9103L38.7218 60.9963C38.1898 61.2613 37.5238 61.3953 36.8578 61.3953Z" fill="#383F4E"/>
</g>
<path fill-rule="evenodd" clip-rule="evenodd" d="M36.8578 53.7703C36.1928 53.7703 35.5268 53.6373 34.9968 53.3713L20.8538 46.2853C20.1318 45.9233 19.7168 45.3393 19.7168 44.6833C19.7168 44.0273 20.1318 43.4433 20.8538 43.0803L24.4108 41.2983C24.9088 41.0493 25.5068 41.2513 25.7538 41.7443C26.0008 42.2383 25.8008 42.8393 25.3078 43.0863L22.1208 44.6823L35.8928 51.5833C36.3888 51.8323 37.3278 51.8323 37.8258 51.5833L51.5968 44.6823L48.4168 43.0893C47.9238 42.8413 47.7238 42.2413 47.9718 41.7473C48.2178 41.2543 48.8168 41.0523 49.3128 41.3013L52.8628 43.0803C53.5858 43.4433 54.0008 44.0273 54.0008 44.6833C54.0008 45.3393 53.5858 45.9233 52.8618 46.2853L38.7218 53.3713C38.1898 53.6363 37.5238 53.7703 36.8578 53.7703Z" fill="#383F4E"/>
<path fill-rule="evenodd" clip-rule="evenodd" d="M52.4133 36.3491L38.2713 29.2641C37.4903 28.8721 36.2243 28.8721 35.4423 29.2641L21.3013 36.3491C20.5193 36.7411 20.5193 37.3751 21.3013 37.7661L35.4423 44.8521C36.2243 45.2431 37.4903 45.2431 38.2713 44.8521L52.4133 37.7661C53.1943 37.3751 53.1943 36.7411 52.4133 36.3491Z" fill="#213B6E"/>
</svg>

<svg width="74" height="62" fill="none" xmlns="http://www.w3.org/2000/svg"><mask id="a" maskUnits="userSpaceOnUse" x="0" y="0" width="74" height="49"><path fill-rule="evenodd" clip-rule="evenodd" d="M0 0h74v48.395H0V0z" fill="#fff"/></mask><g mask="url(#a)"><path fill-rule="evenodd" clip-rule="evenodd" d="M61.086 48.395H58a1 1 0 110-2h2.992c.025-.002.048-.004.073-.004C67.095 46.267 72 41.342 72 35.415c0-5.982-4.765-10.802-10.848-10.974a1.003 1.003 0 01-.834-.492 1.003 1.003 0 01-.024-.968 14.09 14.09 0 001.607-6.558C61.901 8.47 55.321 2 47.232 2c-5.442 0-10.41 2.94-12.964 7.675a1.002 1.002 0 01-1.519.295 13.645 13.645 0 00-8.699-3.123c-7.439 0-13.495 5.946-13.502 13.258a1 1 0 01-.594.912C5.122 23.165 2 27.916 2 33.121c0 7.32 6.058 13.274 13.504 13.274H16a1 1 0 110 2h-.496C6.955 48.395 0 41.543 0 33.121c0-5.785 3.34-11.079 8.562-13.66.349-8.115 7.166-14.614 15.488-14.614 3.253 0 6.424 1.012 9.048 2.87C36.135 2.93 41.449 0 47.232 0c9.192 0 16.669 7.368 16.669 16.422 0 2.13-.406 4.19-1.211 6.14C69.141 23.448 74 28.837 74 35.413c0 6.976-5.731 12.776-12.796 12.976a.912.912 0 01-.118.006z" fill="#383F4E"/></g><mask id="b" maskUnits="userSpaceOnUse" x="19" y="49" width="36" height="13"><path fill-rule="evenodd" clip-rule="evenodd" d="M19.717 49.318H54v12.077H19.717V49.317z" fill="#fff"/></mask><g mask="url(#b)"><path fill-rule="evenodd" clip-rule="evenodd" d="M36.858 61.395c-.665 0-1.331-.133-1.861-.399L20.854 53.91c-.722-.362-1.137-.946-1.137-1.602 0-.656.415-1.24 1.137-1.603l2.556-1.28a1 1 0 01.897 1.788l-2.186 1.094 13.772 6.901c.496.25 1.435.248 1.933 0l13.77-6.9-2.184-1.095a1.001 1.001 0 01.897-1.789l2.554 1.281c.723.363 1.138.947 1.138 1.603s-.415 1.24-1.14 1.602l-14.14 7.086c-.531.265-1.197.4-1.863.4z" fill="#383F4E"/></g><path fill-rule="evenodd" clip-rule="evenodd" d="M36.858 53.77c-.665 0-1.331-.133-1.861-.399l-14.143-7.086c-.722-.362-1.137-.946-1.137-1.602 0-.656.415-1.24 1.137-1.603l3.557-1.782a1 1 0 11.897 1.788l-3.187 1.596 13.772 6.901c.496.25 1.435.25 1.933 0l13.77-6.9-3.18-1.594a1 1 0 01.897-1.788l3.55 1.78c.723.362 1.138.946 1.138 1.602 0 .656-.415 1.24-1.14 1.602l-14.14 7.086c-.531.265-1.197.4-1.863.4z" fill="#383F4E"/><path fill-rule="evenodd" clip-rule="evenodd" d="M52.413 36.35l-14.142-7.086c-.78-.392-2.047-.392-2.829 0l-14.14 7.085c-.783.392-.783 1.026 0 1.417l14.14 7.086c.782.391 2.048.391 2.83 0l14.141-7.086c.781-.39.781-1.025 0-1.417z" fill="#213B6E"/></svg>
